X:1
T:Molly Ban
M:3/4
L:1/8
K:F
(3C3.99999962500005/5.99999925000009C3.99999962500005/5.99999925000009D3.99999962500005/5.99999925000009C3.99999962500005/5.99999925000009D3.99999962500005/5.99999925000009E3.99999962500005/5.99999925000009|\
 F3 FG-F| E C3G-A| B3 B A2| G4(3G3.99999962500005/5.99999925000009G3.99999962500005/5.99999925000009A3.99999962500005/5.99999925000009G3.99999962500005/5.99999925000009A3.99999962500005/5.99999925000009B3.99999962500005/5.99999925000009|\
 c3 AG F|B-A G2(2E3.99999962500005/5.99999925000009E3.99999962500005/5.99999925000009F3.99999962500005/5.99999925000009 G3.99999962500005/5.99999925000009|\
F-E C3 C| C4 C3.99999962500005/5.99999925000009(2D3.99999962500005/5.99999925000009D3.99999962500005/5.99999925000009E3.99999962500005/5.99999925000009|\
 F3 FG-F| E/2E/2 C3 GA| B2B-cB-A| G4(3G3.99999962500005/5.99999925000009G3.99999962500005/5.99999925000009A3.99999962500005/5.99999925000009G3.99999962500005/5.99999925000009A3.99999962500005/5.99999925000009B3.99999962500005/5.99999925000009|\
 c3 AG-F|B-A G3 C|(3E3.99999962500005/5.99999925000009E3.99999962500005/5.99999925000009F3.99999962500005/5.99999925000009E3.99999962500005/5.99999925000009F3.99999962500005/5.99999925000009G3.99999962500005/5.99999925000009F-E-C C|\
 C4||
